X: 18023
T: Hulbert Street
R: jig
M: 6/8
K: Aminor
|:edc BcA|BEE GAB|cBA dB/c/d|e3 ged|
edc BcA|BEE GAB|cBA dBG|A3 ABd:|
|:e3 ged|gea ged|c2A BGE|GAB c2d|
ef/g/e a3|gea ged|cBA dBG|A3 ABd:|

